icons/1_Primary/ZEBEDEE.svg

<svg xmlns="http://www.w3.org/2000/svg" width="1024" height="1024" fill="none">
   <g clip-path="url(#a)">
      <path fill="#FF837D" d="M512 1024c282.77 0 512-229.23 512-512S794.77 0 512 0 0 229.23 0 512s229.23 512 512 512Z"/>
      <path fill="#BD9AFF" d="M512 1024c282.77 0 512-229.23 512-512S794.77 0 512 0 0 229.23 0 512s229.23 512 512 512Z"/>
      <path fill="#fff" d="M183.5 422.4v44.55h124.67v5.64l-124.67 62.7v66.31h203v-44.54h-125v-5.64L386 489.21V422.4H183.5Zm216.21 0v179.2h133.37c16.387 0 29.72-2 40-6 10.28-4 17.83-10 22.65-18a52.02 52.02 0 0 0 3.33-9.31 43.618 43.618 0 0 0 1.28-10.89 48.132 48.132 0 0 0-1.13-11.05 37.349 37.349 0 0 0-3.72-9.44 41.358 41.358 0 0 0-18.17-16.38c-7.86-3.726-19.21-5.606-34.05-5.64v-6.14c14.667-.153 26.017-2.213 34.05-6.18 8.033-3.966 14.09-9.17 18.17-15.61a33.212 33.212 0 0 0 3.72-9.31 48.684 48.684 0 0 0 1.16-10.89 45.683 45.683 0 0 0-1.29-10.88 50.326 50.326 0 0 0-3.33-9.6c-4.773-7.84-12.327-13.77-22.66-17.79s-23.69-6.02-40.07-6l-133.31-.09Zm210.13 0v179.2h122.6c17.753 0 33.5-2.263 47.24-6.79 13.74-4.526 25.347-11.01 34.82-19.45A78.326 78.326 0 0 0 835.6 545a129.67 129.67 0 0 0 3.59-16 107.993 107.993 0 0 0 1.31-17 96.48 96.48 0 0 0-1.41-16.89 303.026 303.026 0 0 0-3.19-15.61c-6.487-17.92-18.82-31.92-37-42-18.18-10.08-40.327-15.113-66.44-15.1H609.84Zm-142.27 40.7h40.2c3.91-.078 7.805.489 11.53 1.68a9.687 9.687 0 0 1 6.4 5.76 7.377 7.377 0 0 1 1.4 3.19c.278 1.477.409 2.978.39 4.48a15.142 15.142 0 0 1-.55 4 11.99 11.99 0 0 1-1.27 3.19 13.112 13.112 0 0 1-6.66 5.51 29.38 29.38 0 0 1-11.27 1.92h-40.17V463.1Zm213.18 5.42h44c10.067 0 18.513 2.26 25.34 6.78A38.427 38.427 0 0 1 765 494.11a70.32 70.32 0 0 1 2.14 8.29c.602 3.164.89 6.38.86 9.6a37.219 37.219 0 0 1-.51 6.28c-.35 2-.68 3.93-1 5.89a34.012 34.012 0 0 1-1.54 5.76 38.707 38.707 0 0 1-15.11 18.69c-7 4.607-15.36 6.924-25.08 6.95h-44l-.01-87.05Zm-213.18 62.42h40.2a28.444 28.444 0 0 1 11.4 2.06c3.153 1.334 5.243 3.12 6.27 5.36a27.024 27.024 0 0 1 1.41 3.47c.431 1.29.648 2.641.64 4a22.572 22.572 0 0 1-.42 4.47 7.368 7.368 0 0 1-1.4 3.21 10.529 10.529 0 0 1-6.52 5.76 34.579 34.579 0 0 1-11.4 1.66h-40.18v-29.99Z"/>
   </g>
   <defs>
      <clipPath id="a">
         <path fill="#fff" d="M0 0h1024v1024H0z"/>
      </clipPath>
   </defs>
</svg>

<svg width="1024" height="1024" viewBox="0 0 1024 1024" fill="none" xmlns="http://www.w3.org/2000/svg">
<g clip-path="url(#clip0_2_4020)">
<path d="M512 1024C794.77 1024 1024 794.77 1024 512C1024 229.23 794.77 0 512 0C229.23 0 0 229.23 0 512C0 794.77 229.23 1024 512 1024Z" fill="#FF837D"/>
<path d="M512 1024C794.77 1024 1024 794.77 1024 512C1024 229.23 794.77 0 512 0C229.23 0 0 229.23 0 512C0 794.77 229.23 1024 512 1024Z" fill="#BD9AFF"/>
<path d="M183.5 422.4V466.95H308.17V472.59L183.5 535.29V601.6H386.5V557.06H261.5V551.42L386 489.21V422.4H183.5ZM399.71 422.4V601.6H533.08C549.467 601.6 562.8 599.6 573.08 595.6C583.36 591.6 590.91 585.6 595.73 577.6C597.133 574.61 598.248 571.492 599.06 568.29C599.943 564.729 600.373 561.07 600.34 557.4C600.391 553.686 600.012 549.978 599.21 546.35C598.405 543.049 597.154 539.873 595.49 536.91C591.224 529.743 584.89 524.033 577.32 520.53C569.46 516.804 558.11 514.924 543.27 514.89V508.75C557.937 508.597 569.287 506.537 577.32 502.57C585.353 498.604 591.41 493.4 595.49 486.96C597.194 484.063 598.448 480.924 599.21 477.65C600.005 474.076 600.394 470.423 600.37 466.76C600.378 463.095 599.945 459.442 599.08 455.88C598.297 452.576 597.181 449.36 595.75 446.28C590.977 438.44 583.423 432.51 573.09 428.49C562.757 424.47 549.4 422.47 533.02 422.49L399.71 422.4ZM609.84 422.4V601.6H732.44C750.193 601.6 765.94 599.337 779.68 594.81C793.42 590.284 805.027 583.8 814.5 575.36C823.855 567.069 831.09 556.659 835.6 545C837.133 539.748 838.332 534.404 839.19 529C840.074 523.377 840.512 517.693 840.5 512C840.526 506.34 840.055 500.688 839.09 495.11C838.163 489.877 837.1 484.674 835.9 479.5C829.413 461.58 817.08 447.58 798.9 437.5C780.72 427.42 758.573 422.387 732.46 422.4H609.84ZM467.57 463.1H507.77C511.68 463.022 515.575 463.589 519.3 464.78C520.739 465.182 522.065 465.91 523.176 466.91C524.286 467.909 525.15 469.152 525.7 470.54C526.415 471.477 526.895 472.571 527.1 473.73C527.378 475.207 527.509 476.708 527.49 478.21C527.486 479.562 527.301 480.908 526.94 482.21C526.672 483.329 526.244 484.403 525.67 485.4C524.136 487.937 521.789 489.879 519.01 490.91C515.415 492.282 511.586 492.934 507.74 492.83H467.57V463.1ZM680.75 468.52H724.75C734.817 468.52 743.263 470.78 750.09 475.3C756.941 479.817 762.166 486.409 765 494.11C765.881 496.828 766.596 499.596 767.14 502.4C767.742 505.564 768.03 508.78 768 512C768.008 514.104 767.837 516.205 767.49 518.28C767.14 520.28 766.81 522.21 766.49 524.17C766.146 526.132 765.631 528.059 764.95 529.93C762.024 537.606 756.732 544.151 749.84 548.62C742.84 553.227 734.48 555.544 724.76 555.57H680.76L680.75 468.52ZM467.57 530.94H507.77C511.671 530.837 515.552 531.539 519.17 533C522.323 534.334 524.413 536.12 525.44 538.36C525.99 539.483 526.461 540.643 526.85 541.83C527.281 543.12 527.498 544.471 527.49 545.83C527.499 547.331 527.358 548.828 527.07 550.3C526.868 551.467 526.388 552.568 525.67 553.51C525.056 554.88 524.157 556.102 523.033 557.095C521.908 558.089 520.584 558.83 519.15 559.27C515.469 560.457 511.616 561.018 507.75 560.93H467.57V530.94Z" fill="white"/>
</g>
<defs>
<clipPath id="clip0_2_4020">
<rect width="1024" height="1024" fill="white"/>
</clipPath>
</defs>
</svg>
